X:1
T:Falalalán falalalera
T:Anónimo (siglo XVI)
T:Edición: Byrt Janssen (Granada, junio 2010)
T:(Cancionero de Uppsala, 1556)
T:Falalalán falalalera
T:Edición: Byrt Janssen (Granada, junio 2010)
T:Edición: Byrt Janssen (Granada, junio 2010)
C:Anónimo (siglo XVI)
Z:Edición: Byrt Janssen (Granada, junio 2010)
%%score [ 1 2 3 4 ]
L:1/8
M:2/2
K:C
V:1 treble nm="SOPRANO" snm="S."
V:2 treble nm="CONTRALTO" snm="A."
V:3 treble-8 transpose=-12 nm="TENOR" snm="T."
V:4 bass nm="BAJO" snm="B."
V:1
 z2 A2 G2 A2 | F4 E2 D2- | D2 E2 F2 G2 | A4 A4 | z2 A2 G2 A2 | F3 F E2 F2 | G2 F2 E4 | %7
w: Fa- la- la-|lán fa- lán|_ fa- la- la-|le- ra,|Fa- la- la|lán de la guar-|d'\_a- rri- e-|
w: |||||||
w: |||||||
 D2 A2 G2 A2 | F4 E2 D2- | D2 E2 F2 G2 | A4 A4 | z2 A2 A2 B2 | c3 B A2 G2 | F2 G2 E4 | D8!fine! || %15
w: ra. Fa- la- la-|lán, fa- lán|_ fa- la- la-|le- ra,|Fa- la- la-|lán de la guar-|d'\_a- rri- e-|ra.|
w: ||||||||
w: ||||||||
 A2 A2 G2 A2 | F4 E2 G2- | G2 A2 F2 G2 | E4 D2 A2- | A2 A2 G2 A2 | F4 E2 C2 | D2 E2 C2 D2 | %22
w: 1.Cuan- do yo me|ven- go de|_ guar- dar ga-|na- do, to-|* dos me lo|di- cen Pe-|dro el des- po-|
w: 2.A- lla\_a- rri- ba\_a-|rri- ba en|_ Val de Ron-|ca- les, ten-|* go yo mi|es- ca, y|_ mis pe- der-|
w: 3.Vie- ne la cua-|res- ma, yo|_ no co- mo|na- da, ni|_ co- mo sar-|di- nas, ni|_ co- sa sa-|
 B,4 A,2 A2- | A2 A2 G2 A2 | F4 E2 C2 | D2 E2 F2 G2 | A4 A2 A2- | A2 A2 A2 B2 | c4 A2 G2- | %29
w: sa- do. A-|* la he si|soy con la|hi- ja de nos-|tra- mo, qu'\_es-|* ta sor- ti|jue- la e-|
w: na- les. Y|_ mi zu- rron-|ci- to de|cier- vos cer- va-|* les, ha-|* go yo mi|lum- bre, sien-|
w: la- da. De|_ cuan- to yo|quie- ro no|_ se ha- ce|na- da, mi-|* gas con a-|cei- te ha-|
 G2 E2 F2 G2 | E4 D2 A2- | A2 A2 G2 F2 | E4 D4 :| %33
w: * lla me la|die- ra, e-|* lla me la|die- ra.|
w: * to- me do-|quie- ra, sien-|* to- me do-|quie- ra.|
w: * cen- me den-|te- ra, ha-|* cen- me den-|te- ra.|
V:2
 z2 F2 E3 E | D2 C4 B,A, | B,2 E3 D D2- | D2 C2 D4 | z2 F2 E2 C2 | D3 D C2 A,2 | B,2 D4 C2 | %7
w: Fa- la- la-|lán fa- la- la|lán fa- la- la-|* le- ra,|Fa- la- la-|lán de la guar-|d'\_a- rri- e-|
w: |||||||
w: |||||||
 D2 F2 E3 E | D2 C4 B,A, | B,2 E3 D D2- | D2 C2 D4 | z2 E2 F2 D2 | G2 C2 F2 E2- | ED D4 C2 | D8 || %15
w: ra. Fa- la- la-|lán, fa- la- la-|lán fa- la- la-|* le- ra,|Fa- la- la-|lán de la guar-|* d'\_a- rri- e-|ra.|
w: ||||||||
w: ||||||||
 F2 E2 E2 C2 | D2 C4 B,2 | C2 E3 D D2- | D2 C2 D2 F2- | F2 E2 E2 F2 | D2 C2 z2 C2- | %21
w: 1.Cuan- do yo me|ven- go de|guar- dar _ ga-|* na- do, to-|* dos me lo|di- cen Pe-|
w: 2.A- lla\_a- rri- ba\_a-|rri- ba en|Val de _ Ron-|* ca- les, ten-|* go yo mi|es- ca, y|
w: 3.Vie- ne la cua-|res ma, yo|no co _ mo|_ na- da, ni|_ co- mo sar-|di- nas, ni|
 CA, B,2 A,2 A,2- | A,2 G,2 A,2 F2- | F2 ED E2 F2 | D2 C4 A,2 | B,2 C2 D4- | D2 C2 D2 D2 | %27
w: * dro el des- po-|* sa- do. A-|* la _ he si|soy con la|hi- ja de|_ nos- tra mo|
w: _ _ mis pe- der-|* na- les. Y|_ mi _ zu- rron-|ci- to de|cier- vos cer-|* va _ les|
w: _ _ co- sas sa-|* la- das. De|_ cuan- * to yo|quie- ro no|_ se ha-|* ce na- da,|
 E3 E F2 G2 | E2 C2 D2 E2- | EDCB, C2 D2- | D2 C2 D2 F2- | F2 ED E2 D2- | D2 C2 D4 :| %33
w: qu'\_es- ta sor- ti-|jue- * la e-|* * lla _ me la|_ die- ra, e-|* la _ me la|_ die- ra.|
w: ha- go yo mi|lum- * bre, sien-|* * to- * me do-|* quie- ra, sien-|* to _ me do-|* quie- ra.|
w: mi- gas con a-|cei- * te, ha-|* * cen- * me den-|* ta- ra, ha-|* cen _ me den-|* te- ra.|
V:3
 z2 d2 B2 c2 | A3 B c2 d2- | dB c2 A2 d2 | e4 f2 d2- | d2 cB c2 A2 | _B3 A G2 F2 | E2 D2 A4 | %7
w: Fa- la- la-|lán, _ fa- lán|_ _ fa- la- la-|le- ra, Fa-|* * * la- la-|lán de la guar-|d'\_a- rri- e-|
w: |||||||
w: |||||||
 A2 d2 B2 c2 | A3 B c2 d2- | dB c2 A2 d2 | e4 f2 d2- | d2 c2 d2 d2 | c2 A3 B c2 | A2 B2 A4 | A8 || %15
w: ra. Fa- la- la-|lán, _ fa- lán,|_ _ fa- la- la-|le- ra, Fa-|* la la- lán|de la _ guar-|d'\_a- rri- e-|ra.|
w: ||||||||
w: ||||||||
 d2 A2 c2 F2 | B2 A4 G2 | c4 _B2 G2 | A4 D2 d2- | d2 A2 c2 F2- | FGAB c2 A2 | G2 E2 F2 D2 | %22
w: 1.Cuan- do yo me|ven- go de|guar- dar ga-|na- do, to-|* dos me lo|_ di- * * cen Pe-|dro el des- po-|
w: 2.A- lla\_a- rri- ba\_a-|rri- ba en|Val de Ron-|ca- les, ten-|* go yo mi|_ es- * * ca, y|_ mis pe- der-|
w: 3.Vie- ne la cua-|res- ma, yo|no co- mo|na- da, ni|_ co- mo sar-|* di- * * nas, ni|_ co- sas sa-|
 E4 A2 d2- | d2 A2 c2 F2 | B2 A4 A2 | G2 c2 _B2 B2 | A4 D2 d2- | d2 c2 d2 G2 | A4 F2 E2 | %29
w: sa- do. A-|* la he si|soy con la|hi- ja de nos-|tra- mo, qu'\_es-|* ta sor- ti-|jue- la e-|
w: na- les. Y|_ mi zu- rron-|ci- to de|cier- vos cer- va-|* les, ha-|* go yo mi|lum- bre, sien-|
w: la- das. De|_ cuan- to yo|quie- ro no|_ se ha- ce|na- da, mi-|* gas con a-|cei- te ha-|
 E2 A4 G2 | A4 D2 d2- | dcAB c2 F2 | G2 A2 D4 :| %33
w: lla me la|die- ra, e-|* lla _ _ me la|die- * ra.|
w: to- me do-|quie- ra, sien-|* to- * * me do-|quie- * ra.|
w: cen- me den-|te- ra, ha-|* cen- * * me den-|te- * ra.|
V:4
 z2 D,2 E,2 C,2 | D,2 A,,4 B,,2 | G,,2 C,2 D,2 B,,2 | A,,4 D,4 | z2 F,2 C,2 F,2 | %5
w: Fa- la- la-|lán, _ fa-|lán, fa- la- la-|le- ra,|Fa- la- la|
 _B,,3 B,, C,2 D,2 | G,,2 D,2 A,,4 | D,2 D,2 E,2 C,2 | D,2 A,,4 B,,2 | G,,2 C,2 D,2 B,,2 | %10
w: lán de la guar-|d'\_a- rri- e-|ra. Fa- la- la-|lán, _ fa-|lán, fa- la- la-|
 A,,4 D,4 | z2 A,2 F,2 G,2 | C,2 F,2 F,2 C,2 | D,2 G,,2 A,,4 | D,8 || z8 | z8 | z8 | z8 | z8 | z8 | %21
w: le- ra,|Fa- la- la-|lán de la guar-|d'a- rri- e-|ra.|||||||
 z8 | z8 | z8 | z8 | z8 | z8 | z8 | z8 | z8 | z8 | z8 | z8 :| %33
w: ||||||||||||

